icon-svg/bulb-group-lightstrip-v.svg

<svg xmlns="http://www.w3.org/2000/svg" fill="#44739e" viewBox="0 0 24 24"><path d="M2 6.521v13.972a.875.875 0 0 0 .822.822h3.014a.727.727 0 0 0 .822-.822V6.521c0-3.014 2.191-3.836 3.013-3.836H5.836A3.746 3.746 0 0 0 2 6.521m3.014 12.328a.875.875 0 0 1-.822.822.727.727 0 0 1-.822-.822.875.875 0 0 1 .822-.822.727.727 0 0 1 .822.822m0-3.835a.727.727 0 0 1-.822.822.727.727 0 0 1-.822-.822.727.727 0 0 1 .822-.822.875.875 0 0 1 .822.822m0-3.836a.727.727 0 0 1-.822.822.727.727 0 0 1-.822-.822.727.727 0 0 1 .822-.822.727.727 0 0 1 .822.822m0-3.836a.727.727 0 0 1-.822.822.875.875 0 0 1-.822-.822 1.234 1.234 0 0 1 .822-.821.726.726 0 0 1 .822.821m3.013-.821v13.972a.875.875 0 0 0 .822.822h3.014a.727.727 0 0 0 .822-.822V6.521c0-3.014 2.192-3.836 3.014-3.836h-3.836a3.919 3.919 0 0 0-3.836 3.836m3.014 12.328a.875.875 0 0 1-.822.822.727.727 0 0 1-.822-.822.875.875 0 0 1 .822-.822.727.727 0 0 1 .822.822m0-3.835a.727.727 0 0 1-.822.822.727.727 0 0 1-.822-.822.727.727 0 0 1 .822-.822.875.875 0 0 1 .822.822m0-3.836a.875.875 0 0 1-.822.822.727.727 0 0 1-.822-.822.727.727 0 0 1 .822-.822.727.727 0 0 1 .822.822m0-3.836a.727.727 0 0 1-.822.822.727.727 0 0 1-.819-.822.875.875 0 0 1 .822-.821.875.875 0 0 1 .822.821m3.288-.821v13.972a.875.875 0 0 0 .822.822h3.013a.875.875 0 0 0 .822-.822V6.521c0-3.014 2.192-3.836 3.014-3.836h-3.839a3.746 3.746 0 0 0-3.835 3.836m3.013 12.328a.875.875 0 0 1-.821.822.727.727 0 0 1-.822-.822.875.875 0 0 1 .822-.822.726.726 0 0 1 .821.822m0-3.835a.726.726 0 0 1-.821.822.727.727 0 0 1-.822-.822.727.727 0 0 1 .822-.822.875.875 0 0 1 .821.822m0-3.836a.875.875 0 0 1-.821.822.727.727 0 0 1-.822-.822.727.727 0 0 1 .822-.822.726.726 0 0 1 .821.822m0-3.836a.726.726 0 0 1-.821.822.727.727 0 0 1-.822-.822.726.726 0 0 1 .822-.821.726.726 0 0 1 .821.821"/></svg>

<?xml version="1.0" encoding="UTF-8"?>
<svg width="24px" height="24px" viewBox="0 0 24 24" version="1.1" fill="#44739e" xmlns="http://www.w3.org/2000/svg" xmlns:xlink="http://www.w3.org/1999/xlink">
            <path d="m 2,6.521 v 13.972 a 0.875,0.875 0 0 0 0.822,0.822 H 5.836 A 0.727,0.727 0 0 0 6.658,20.493 V 6.521 c 0,-3.014 2.191,-3.836 3.013,-3.836 H 5.836 A 3.746,3.746 0 0 0 2,6.521 M 5.014,18.849 A 0.875,0.875 0 0 1 4.192,19.671 0.727,0.727 0 0 1 3.37,18.849 0.875,0.875 0 0 1 4.192,18.027 0.727,0.727 0 0 1 5.014,18.849 m 0,-3.835 A 0.727,0.727 0 0 1 4.192,15.836 0.727,0.727 0 0 1 3.37,15.014 0.727,0.727 0 0 1 4.192,14.192 0.875,0.875 0 0 1 5.014,15.014 m 0,-3.836 A 0.727,0.727 0 0 1 4.192,12 0.727,0.727 0 0 1 3.37,11.178 0.727,0.727 0 0 1 4.192,10.356 0.727,0.727 0 0 1 5.014,11.178 m 0,-3.836 A 0.727,0.727 0 0 1 4.192,8.164 0.875,0.875 0 0 1 3.37,7.342 1.234,1.234 0 0 1 4.192,6.521 0.726,0.726 0 0 1 5.014,7.342 M 8.027,6.521 v 13.972 a 0.875,0.875 0 0 0 0.822,0.822 h 3.014 a 0.727,0.727 0 0 0 0.822,-0.822 V 6.521 c 0,-3.014 2.192,-3.836 3.014,-3.836 H 11.863 A 3.919,3.919 0 0 0 8.027,6.521 m 3.014,12.328 a 0.875,0.875 0 0 1 -0.822,0.822 0.727,0.727 0 0 1 -0.822,-0.822 0.875,0.875 0 0 1 0.822,-0.822 0.727,0.727 0 0 1 0.822,0.822 m 0,-3.835 a 0.727,0.727 0 0 1 -0.822,0.822 0.727,0.727 0 0 1 -0.822,-0.822 0.727,0.727 0 0 1 0.822,-0.822 0.875,0.875 0 0 1 0.822,0.822 m 0,-3.836 A 0.875,0.875 0 0 1 10.219,12 0.727,0.727 0 0 1 9.397,11.178 a 0.727,0.727 0 0 1 0.822,-0.822 0.727,0.727 0 0 1 0.822,0.822 m 0,-3.836 A 0.727,0.727 0 0 1 10.219,8.164 0.727,0.727 0 0 1 9.4,7.342 0.875,0.875 0 0 1 10.222,6.521 0.875,0.875 0 0 1 11.044,7.342 m 3.288,-0.821 v 13.972 a 0.875,0.875 0 0 0 0.822,0.822 h 3.013 a 0.875,0.875 0 0 0 0.822,-0.822 V 6.521 c 0,-3.014 2.192,-3.836 3.014,-3.836 h -3.839 a 3.746,3.746 0 0 0 -3.835,3.836 m 3.013,12.328 a 0.875,0.875 0 0 1 -0.821,0.822 0.727,0.727 0 0 1 -0.822,-0.822 0.875,0.875 0 0 1 0.822,-0.822 0.726,0.726 0 0 1 0.821,0.822 m 0,-3.835 a 0.726,0.726 0 0 1 -0.821,0.822 0.727,0.727 0 0 1 -0.822,-0.822 0.727,0.727 0 0 1 0.822,-0.822 0.875,0.875 0 0 1 0.821,0.822 m 0,-3.836 A 0.875,0.875 0 0 1 16.521,12 a 0.727,0.727 0 0 1 -0.822,-0.822 0.727,0.727 0 0 1 0.822,-0.822 0.726,0.726 0 0 1 0.821,0.822 m 0,-3.836 a 0.726,0.726 0 0 1 -0.821,0.822 0.727,0.727 0 0 1 -0.822,-0.822 0.726,0.726 0 0 1 0.822,-0.821 0.726,0.726 0 0 1 0.821,0.821"/>

</svg>
